web-app/src/assets/SVG/ellipse.svg

<svg width="160" height="160" viewBox="0 0 160 160" fill="none" xmlns="http://www.w3.org/2000/svg">
<circle cx="80" cy="80" r="79" fill="#F7F7F7" stroke="#9B51E0" stroke-width="2"/>
<path d="M79.9998 103.333C79.2776 103.333 78.6804 103.097 78.2082 102.625C77.7359 102.153 77.4998 101.556 77.4998 100.833V82.5H59.1665C58.4443 82.5 57.8471 82.2639 57.3748 81.7916C56.9026 81.3194 56.6665 80.7222 56.6665 80C56.6665 79.2777 56.9026 78.6805 57.3748 78.2083C57.8471 77.7361 58.4443 77.5 59.1665 77.5H77.4998V59.1666C77.4998 58.4444 77.7359 57.8472 78.2082 57.375C78.6804 56.9027 79.2776 56.6666 79.9998 56.6666C80.7221 56.6666 81.3193 56.9027 81.7915 57.375C82.2637 57.8472 82.4998 58.4444 82.4998 59.1666V77.5H100.833C101.555 77.5 102.153 77.7361 102.625 78.2083C103.097 78.6805 103.333 79.2777 103.333 80C103.333 80.7222 103.097 81.3194 102.625 81.7916C102.153 82.2639 101.555 82.5 100.833 82.5H82.4998V100.833C82.4998 101.556 82.2637 102.153 81.7915 102.625C81.3193 103.097 80.7221 103.333 79.9998 103.333Z" fill="url(#paint0_linear_761_1628)"/>
<defs>
<linearGradient id="paint0_linear_761_1628" x1="79.9998" y1="56.6666" x2="79.9998" y2="103.333" gradientUnits="userSpaceOnUse">
<stop stop-color="#9B51E0"/>
<stop offset="1" stop-color="#720ECF"/>
</linearGradient>
</defs>
</svg>

<svg xmlns="http://www.w3.org/2000/svg" width="160" height="160" fill="none"><circle cx="80" cy="80" r="79" fill="#F7F7F7" stroke="#9B51E0" stroke-width="2"/><path fill="url(#a)" d="M80 103.333c-.722 0-1.32-.236-1.792-.708s-.708-1.069-.708-1.792V82.5H59.166c-.722 0-1.319-.236-1.791-.708-.472-.473-.709-1.07-.709-1.792s.237-1.32.709-1.792 1.07-.708 1.791-.708H77.5V59.167c0-.723.236-1.32.708-1.792s1.07-.708 1.792-.708 1.32.236 1.791.708c.473.472.709 1.07.709 1.792V77.5h18.333c.722 0 1.32.236 1.792.708s.708 1.07.708 1.792-.236 1.32-.708 1.792-1.07.708-1.792.708H82.5v18.333c0 .723-.236 1.32-.709 1.792-.472.472-1.069.708-1.791.708Z"/><defs><linearGradient id="a" x1="80" x2="80" y1="56.667" y2="103.333" gradientUnits="userSpaceOnUse"><stop stop-color="#9B51E0"/><stop offset="1" stop-color="#720ECF"/></linearGradient></defs></svg>
